ufans-frontend-package/public/assets/images/new-settings/subscription-plans.svg

<svg width="96" height="106" viewBox="0 0 96 106" fill="none" xmlns="http://www.w3.org/2000/svg">
<path d="M21.8154 64.8089C21.8154 66.2073 22.4071 66.9456 23.7623 67.6051V62.375C21.8154 62.9452 21.8154 64.2582 21.8154 64.8089Z" fill="#6661E7"/>
<path d="M91.2 38.3984H4.8C2.14912 38.3984 0 40.5476 0 43.1984V100.798C0 103.449 2.14912 105.598 4.8 105.598H91.2C93.8509 105.598 96 103.449 96 100.798V43.1984C96 40.5476 93.8509 38.3984 91.2 38.3984ZM27.96 86.2064V87.2922C27.96 88.3504 26.9616 89.2784 25.8234 89.2784C24.6451 89.2784 23.6864 88.3872 23.6864 87.2922V86.4573C19.1011 85.9796 16.24 83.1853 16.24 81.2269C16.24 79.9981 17.287 78.5693 18.6371 78.5693C19.4573 78.5693 19.9763 79.1092 20.4781 79.6308C21.1168 80.2951 21.9482 81.16 23.6861 81.49V72.9716C20.5178 71.8372 16.9094 70.2432 16.9094 65.0282C16.9094 60.8644 19.3606 58.1626 23.6861 57.4797V56.7668C23.6861 55.6701 24.6448 54.778 25.823 54.778C26.9613 54.778 27.9597 55.7072 27.9597 56.7668V57.3735C30.3949 57.6772 33.6198 58.6359 33.6198 60.8192C33.6198 61.906 32.7792 63.4781 31.2595 63.4781C30.7232 63.4781 30.2688 63.2464 29.7875 63.001C29.3312 62.7684 28.7613 62.4778 27.9594 62.2871V69.1639C30.5424 70.1597 34.2899 72.1101 34.2899 77.8375C34.2906 82.274 32.001 85.2704 27.96 86.2064ZM72 86.3984H46.4C43.7491 86.3984 41.6 84.2493 41.6 81.5984C41.6 78.9476 43.7491 76.7984 46.4 76.7984H72C74.6509 76.7984 76.8 78.9476 76.8 81.5984C76.8 84.2493 74.6509 86.3984 72 86.3984ZM72 67.1984H46.4C43.7491 67.1984 41.6 65.0493 41.6 62.3984C41.6 59.7476 43.7491 57.5984 46.4 57.5984H72C74.6509 57.5984 76.8 59.7476 76.8 62.3984C76.8 65.0493 74.6509 67.1984 72 67.1984Z" fill="#6661E7"/>
<path d="M27.8486 74.7852V81.0936C28.8646 80.5324 29.3472 79.5423 29.3472 78.0636C29.3472 76.4536 28.8301 75.5036 27.8486 74.7852Z" fill="#6661E7"/>
<path d="M91.2008 0H14.4008C13.1275 0 11.9067 0.50592 11.0069 1.40608L1.4069 11.0061C-0.467663 12.8806 -0.467663 15.9197 1.4069 17.7942L11.0069 27.3942C11.9067 28.2941 13.1279 28.8 14.4008 28.8H91.2008C93.8517 28.8 96.0008 26.6509 96.0008 24V4.8C96.0008 2.14912 93.8517 0 91.2008 0Z" fill="#6661E7"/>
</svg>

<svg id="subscription-plans" xmlns="http://www.w3.org/2000/svg" width="96" height="105.6" viewBox="0 0 96 105.6">
  <path id="Path_1" data-name="Path 1" d="M21.815,64.809a2.807,2.807,0,0,0,1.947,2.8v-5.23a2.288,2.288,0,0,0-1.947,2.43Z" fill="#e44499"/>
  <path id="Path_2" data-name="Path 2" d="M91.2,38.4H4.8A4.8,4.8,0,0,0,0,43.2v57.6a4.8,4.8,0,0,0,4.8,4.8H91.2a4.8,4.8,0,0,0,4.8-4.8V43.2A4.8,4.8,0,0,0,91.2,38.4ZM27.96,86.206v1.086a2.12,2.12,0,0,1-2.137,1.986,2.068,2.068,0,0,1-2.137-1.986v-.835c-4.585-.478-7.446-3.272-7.446-5.23a2.681,2.681,0,0,1,2.4-2.658,2.579,2.579,0,0,1,1.841,1.062,5.481,5.481,0,0,0,3.208,1.859V72.972c-3.168-1.134-6.777-2.728-6.777-7.943,0-4.164,2.451-6.866,6.777-7.549v-.713a2.069,2.069,0,0,1,2.137-1.989,2.121,2.121,0,0,1,2.137,1.989v.607c2.435.3,5.66,1.262,5.66,3.446a2.613,2.613,0,0,1-2.36,2.659A3.234,3.234,0,0,1,29.788,63a7.718,7.718,0,0,0-1.828-.714v6.877c2.583,1,6.331,2.946,6.331,8.674C34.291,82.274,32,85.27,27.96,86.206ZM72,86.4H46.4a4.8,4.8,0,1,1,0-9.6H72a4.8,4.8,0,0,1,0,9.6Zm0-19.2H46.4a4.8,4.8,0,0,1,0-9.6H72a4.8,4.8,0,1,1,0,9.6Z" fill="#e44499"/>
  <path id="Path_3" data-name="Path 3" d="M27.849,74.785v6.308a3.122,3.122,0,0,0,1.5-3.03,3.644,3.644,0,0,0-1.5-3.278Z" fill="#e44499"/>
  <path id="Path_4" data-name="Path 4" d="M91.2,0H14.4a4.8,4.8,0,0,0-3.394,1.406l-9.6,9.6a4.8,4.8,0,0,0,0,6.788l9.6,9.6A4.8,4.8,0,0,0,14.4,28.8H91.2A4.8,4.8,0,0,0,96,24V4.8A4.8,4.8,0,0,0,91.2,0Z" fill="#e44499"/>
</svg>
